X: 17272
T: Here's To The Maiden Of Bashful Fifteen
R: jig
M: 6/8
K: Gmajor
d|"G"GAG "Em"gfg|"C"ede "D7"d2B|"G"GAG "Em"gfg|"Am"e3 "D7"d2B|
"G"GAG "Em"gfg|"C"ede "G"d2B|"C"cec "G"BdB|"D7"A3 "G"G2:|
|:c|"G"Bcd d2d|dcB "D7"A2c|"G"Bcd ded|dcB "D7"A2c|
"G"Bcd d2d|dcB "D7"A2c|"G"Bcd ded|"D7"cBA "G"G2:|

